src/WeatherTwentyOne/Resources/Images/solid_wind.svg

<svg width="21" height="18" viewBox="0 0 21 18" fill="none" xmlns="http://www.w3.org/2000/svg">
<path d="M6.2967 8.99949H0.64293C0.289319 8.99949 0 9.28881 0 9.64242V10.9283C0 11.2819 0.289319 11.5712 0.64293 11.5712H6.35697C6.99588 11.5712 7.59461 12.0092 7.69909 12.6401C7.83169 13.4437 7.21287 14.1429 6.4293 14.1429C5.86272 14.1429 5.38052 13.7732 5.20774 13.2629C5.12335 13.0098 4.86216 12.8571 4.59695 12.8571H3.27894C2.88515 12.8571 2.5677 13.2107 2.64003 13.5964C2.98561 15.3685 4.55275 16.7147 6.42528 16.7147C8.71974 16.7147 10.5521 14.7015 10.2507 12.3508C10.0056 10.4059 8.25362 8.99949 6.2967 8.99949ZM0.64293 7.71363H14.1445C16.5434 7.71363 18.436 5.5116 17.9136 3.02426C17.6083 1.56963 16.4309 0.392264 14.9763 0.0868724C12.7501 -0.379252 10.753 1.08743 10.3592 3.1207C10.2829 3.50646 10.6043 3.85605 10.9941 3.85605H12.3121C12.5813 3.85605 12.8385 3.70336 12.9229 3.4502C13.0957 2.93988 13.5779 2.57019 14.1445 2.57019C14.924 2.57019 15.5469 3.26938 15.4143 4.07304C15.3098 4.70391 14.7151 5.14191 14.0721 5.14191H0.64293C0.289319 5.14191 0 5.43123 0 5.78484V7.0707C0 7.42431 0.289319 7.71363 0.64293 7.71363ZM16.0733 8.99949H9.79263C10.5682 9.66653 11.1267 10.5586 11.3919 11.5712H16.0733C17.1381 11.5712 18.002 12.4352 18.002 13.5C18.002 14.5649 17.1381 15.4288 16.0733 15.4288C15.354 15.4288 14.7352 15.031 14.4016 14.4483C14.2851 14.2474 14.052 14.1429 13.819 14.1429H12.4608C12.0228 14.1429 11.6973 14.5769 11.846 14.9908C12.5612 17.0241 14.6789 18.3983 17.0457 17.896C18.7012 17.5464 20.0634 16.2244 20.4492 14.5729C21.1363 11.6315 18.9062 8.99949 16.0733 8.99949Z" fill="#3E8EED"/>
</svg>

<svg width="21" height="18" fill="none" xmlns="http://www.w3.org/2000/svg">
    <path
        d="M6.297 9H.643A.645.645 0 000 9.641v1.286c0 .354.29.643.643.643h5.714c.639 0 1.238.438 1.342 1.07a1.287 1.287 0 01-2.491.622c-.085-.253-.346-.406-.611-.406H3.279c-.394 0-.711.354-.639.74a3.867 3.867 0 003.785 3.118 3.862 3.862 0 003.826-4.364c-.245-1.945-1.997-3.352-3.954-3.352zM.643 7.713h13.502a3.865 3.865 0 003.769-4.69A3.844 3.844 0 0014.976.087 3.866 3.866 0 0010.36 3.12c-.076.385.245.735.635.735h1.318c.27 0 .527-.153.61-.406.174-.51.656-.88 1.223-.88.779 0 1.402.7 1.27 1.503-.105.63-.7 1.069-1.343 1.069H.642A.645.645 0 000 5.785V7.07c0 .353.29.643.643.643zm15.43 1.285h-6.28a5.08 5.08 0 011.599 2.572h4.681a1.93 1.93 0 010 3.858c-.719 0-1.338-.398-1.671-.98-.117-.202-.35-.306-.583-.306h-1.358c-.438 0-.764.434-.615.848.715 2.033 2.833 3.407 5.2 2.905 1.655-.35 3.017-1.672 3.403-3.323a4.51 4.51 0 00-4.376-5.574z"
        fill="#3E8EED" />
</svg>
